src/sentry/static/sentry/images/logos/logo-heroku.svg

<svg xmlns="http://www.w3.org/2000/svg" viewBox="0 0 80 80"><path d="M68.8 0H11.2A7.2 7.2 0 004 7.2v65.6a7.2 7.2 0 007.2 7.2h57.6a7.2 7.2 0 007.2-7.2V7.2A7.2 7.2 0 0068.8 0zM22 68V52l9 8zm28 0V44.11c0-1.87-.94-4.11-5-4.11-8.13 0-17.26 4.09-17.35 4.13L22 46.69V12h8v22.71A50.62 50.62 0 0145 32c4.94 0 7.9 1.94 9.52 3.57A12.48 12.48 0 0158 44v24zm2-43h-8a31.12 31.12 0 006-13h8a23.44 23.44 0 01-6 13z" fill="#430098"/></svg>

<svg xmlns="http://www.w3.org/2000/svg" viewBox="0 0 80 80"><title>logos</title><path d="M68.8,0H11.2A7.2,7.2,0,0,0,4,7.2V72.8A7.2,7.2,0,0,0,11.2,80H68.8A7.2,7.2,0,0,0,76,72.8V7.2A7.2,7.2,0,0,0,68.8,0ZM22,68V52l9,8Zm28,0V44.11c0-1.87-.94-4.11-5-4.11-8.13,0-17.26,4.09-17.35,4.13L22,46.69V12h8V34.71A50.62,50.62,0,0,1,45,32c4.94,0,7.9,1.94,9.52,3.57A12.48,12.48,0,0,1,58,44V68Zm2-43H44a31.12,31.12,0,0,0,6-13h8A23.44,23.44,0,0,1,52,25Z" style="fill:#430098"/></svg>
